svg/scissors.svg

<svg xmlns="http://www.w3.org/2000/svg" viewBox="0 0 62 64" enable-background="new 0 0 62 64"><style type="text/css">.st0{fill:#343434;}</style><title>scissors</title><desc>Created with Sketch.</desc><path class="st0" d="M61 20.8l-.1-.2-30.9 10.7v-31.3h-.2c-4.5 0-8 3.7-7.8 8.2l1.1 25.5-5.7 2c-1.9-4.1-6.7-6.2-11.1-4.7-4.7 1.6-7.2 6.7-5.6 11.4s6.7 7.2 11.4 5.6c2.8-1 4.9-3.2 5.7-5.9l5.6-1.6.3 7.3c-2.2 1.5-3.7 4.2-3.7 7.2 0 5 4 9 9 9s9-4 9-9c0-4.6-3.5-8.4-8-8.9v-7.6l25.8-7.7c4.3-1.2 6.7-5.7 5.2-10zm-50.1 23.4c-2.6.9-5.5-.5-6.4-3.1-.9-2.6.5-5.5 3.1-6.4 2.6-.9 5.5.5 6.4 3.1.9 2.7-.5 5.5-3.1 6.4zm23.1 10.8c0 2.8-2.2 5-5 5s-5-2.2-5-5 2.2-5 5-5 5 2.2 5 5z"/></svg>

<?xml version="1.0" encoding="utf-8"?>
<!-- Generator: Adobe Illustrator 21.0.0, SVG Export Plug-In . SVG Version: 6.00 Build 0)  -->
<svg version="1.1" id="Layer_1" xmlns="http://www.w3.org/2000/svg" xmlns:xlink="http://www.w3.org/1999/xlink" x="0px" y="0px"
	 viewBox="0 0 62 64" style="enable-background:new 0 0 62 64;" xml:space="preserve">
<style type="text/css">
	.st0{fill:#343434;}
</style>
<title>scissors</title>
<desc>Created with Sketch.</desc>
<path class="st0" d="M61,20.8l-0.1-0.2L30,31.3V0h-0.2c-4.5,0-8,3.7-7.8,8.2l1.1,25.5l-5.7,2c-1.9-4.1-6.7-6.2-11.1-4.7
	c-4.7,1.6-7.2,6.7-5.6,11.4s6.7,7.2,11.4,5.6c2.8-1,4.9-3.2,5.7-5.9l5.6-1.6l0.3,7.3C21.5,49.3,20,52,20,55c0,5,4,9,9,9s9-4,9-9
	c0-4.6-3.5-8.4-8-8.9v-7.6l25.8-7.7C60.1,29.6,62.5,25.1,61,20.8z M10.9,44.2c-2.6,0.9-5.5-0.5-6.4-3.1c-0.9-2.6,0.5-5.5,3.1-6.4
	c2.6-0.9,5.5,0.5,6.4,3.1C14.9,40.5,13.5,43.3,10.9,44.2z M34,55c0,2.8-2.2,5-5,5s-5-2.2-5-5s2.2-5,5-5S34,52.2,34,55z"/>
</svg>
